view-headline.svg

<svg fill="currentColor" viewBox="0 0 24 24"><path d="M4 5v2h17V5M4 11h17V9H4m0 10h17v-2H4m0-2h17v-2H4z"/></svg>

<svg  viewBox="0 0 24 24" fill="currentColor"><path  d="M4,5V7H21V5M4,11H21V9H4M4,19H21V17H4M4,15H21V13H4V15Z"/></svg>
